X:1
T:Merry Scot,The. V.278
M:C|
L:1/8
Q:180
S:Chris Partington <ChrisTheFiddlerPartington@Hotmail.com> tradtunes 2008-4-21
S:Vicker's MS,c1770
R:Reel
O:England
A:Northumberland
Z:Chris Partington
K:D
|: D2DF  Addc | BEEF  GABc | dBAF GEg2 | fdec Add2 :|
|: f>gaf ecA2 | B>cdB AFD2 | GABc dBg2 | fdec Add2 :|
